X: 22203
T: La Cardeuse
R: reel
M: 4/4
K: Gmajor
"SET"|:"Em"[B2E2] [BE][BE] EBGB|dedB "Am"cdcB|
"Em"[B2E2] [BE][BE] EBGB|dedB "Am"cdcB|"D"AGFG [A2D2]FA|
[1"D/F#"d2F2 "G"G4:|2 "D/F#"d2F2 "G"G2Bc||
"G"dcBc d2[g2d2]|d2[g2d2] d2[g2d2]|[D2G,2]AB "D7"cBAB|
c2[a2c2] c2[a2c2]|[a2c2][a2c2] D2Bc|"G"dcBc d2[g2d2]|
d2[g2d2] d2[g2d2]|[D2G,2]AB "D7"cBAB|c2[a2c2] c2[a2c2]|
[a2c2][a2c2] D2Bc|"G"dcBc d2[g2d2]|d2[g2d2] d2[g2d2]|
[D2G,2]AB "D7"cBAB|c2[a2c2] "G"g2f2|g2[g2B2] [g4B4]||
"(A)"|"G"d2ef "C"fgfg|"G"d2ef g2B2|"C"c2{c}B2 "D"AGAc|
"G"B2G2 GABc|"G"d2ef "C"fgfg|"G"d2ef g2B2|
"C"c2{c}B2 "D"AGAc|"G"B2G2 [G4B4]||
"(B)"|:"G"BcBA G2BG|"D"DFAF "G"G2GA|
"G"Bcdc B2AB|"D"cBAF "G"GDE2|"G"DEGA [B2D2]AG|
"D"A2B2 "C"[c4E4]|"G"Bcdc B2AB|"D"cBAF "G"GDE2|
"G"DEGA [B2D2]AG|"D"A2B2 "C"[c4E4]|"G"Bcdc B2AB|
"D"cBAF "G"GDE2|"G"DEGA [B2D2]AG|"D"A2B2 "C"[c4E4]|"G"Bcdc B2AB|"D"cBAF "G"[G4B4]||
"SET"|:"Em"[B2E2] [BE][BE] EBGB|dedB "Am"cdcB||

